icon-themes/sifr_svg/dbaccess/res/forms_32.svg

<svg viewBox="0 0 32 32" xmlns="http://www.w3.org/2000/svg"><path d="m7 2c-1.108 0-2 .892-2 2v24c0 1.108.892 2 2 2h18c1.108 0 2-.892 2-2v-18c0-2-4-8-8-8zm0 2h12v7h6v17h-18zm2 2v4h8v-4zm0 8v4h4v-4zm6 0v4h8v-4zm-6 7v4h4v-4zm6 0v4h8v-4z" fill="#555753"/></svg>

<svg xmlns="http://www.w3.org/2000/svg" viewBox="0 0 32 32">
  <path
     style="fill:#555753"
     d="M 7 2 C 5.892 2 5 2.892 5 4 L 5 28 C 5 29.108 5.892 30 7 30 L 25 30 C 26.108 30 27 29.108 27 28 L 27 10 C 27 8 23 2 19 2 L 7 2 z M 7 4 L 19 4 L 19 11 L 25 11 L 25 28 L 7 28 L 7 4 z M 9 6 L 9 10 L 17 10 L 17 6 L 9 6 z M 9 14 L 9 18 L 13 18 L 13 14 L 9 14 z M 15 14 L 15 18 L 23 18 L 23 14 L 15 14 z M 9 21 L 9 25 L 13 25 L 13 21 L 9 21 z M 15 21 L 15 25 L 23 25 L 23 21 L 15 21 z "
     />
</svg>
